!!!COM: Palestrina, Giovanni Perluigi da
!!!OPR: Missa Alma Redemptoris mater
!!!OMD: Credo
!!!OTL: Crucifixus
**kern	**kern	**kern	**kern
*Ibass	*Itenor	*Icalto	*Icant
!Bassus	!Tenor	!Altus	!Cantus
*clefF4	*clefGv2	*clefG2	*clefG2
*k[b-]	*k[b-]	*k[b-]	*k[b-]
*F:ion	*F:ion	*F:ion	*F:ion
*M4/2	*M4/2	*M4/2	*M4/2
=75	=75	=75	=75
0F	0f	0a	1r
.	.	.	[1cc
=76	=76	=76	=76
1C	1e	0g	1cc]
1G	1d	.	1b-
=77	=77	=77	=77
2.A	2c	1cc	1a
.	1f	.	.
4B-	.	.	.
1c	.	2.cc	2g
.	2e	.	[2cc
.	.	4b-	.
=78	=78	=78	=78
0r	2f	2a	2cc]
.	2g	2g	2b-
.	[1f	1a	2cc
.	.	.	2dd
=79	=79	=79	=79
0r	2f]	1r	1.cc
.	2e	.	.
.	1d	[1f	.
.	.	.	2b-
=80	=80	=80	=80
2r	1c	2f]	2a
1c	.	4e	4g
.	.	4d	4f
.	1r	4e	1g
.	.	4f	.
2B-	.	[2g	.
=81	=81	=81	=81
2c	1r	2g]	2.a
2d	.	2f	.
.	.	.	4b-
2c	2r	2e	4a
.	.	.	4g
2B-	2d	[2d	[2g
=82	=82	=82	=82
1A	2e	4d]	2g]
.	.	4c	.
.	4d	1c	2f
.	4c	.	.
1G	1d	.	[1g
.	.	2B	.
=83	=83	=83	=83
2r	[0e	1c	0g]
2c	.	.	.
2.c	.	2r	.
.	.	2cc	.
4B-	.	.	.
=84	=84	=84	=84
2.A	1e]	2.cc	2r
.	.	.	2cc
4G	.	4b-	.
1F	2r	2.a	2.cc
.	2c	.	.
.	.	4g	4b-
=85	=85	=85	=85
2F	2.c	2f	2a
2E	.	2c	2g
.	4B-	.	.
2F	2A	1c	2f
2E	2G	.	[2g
=86	=86	=86	=86
2D	2A	2d	4g]
.	.	.	4f
2D	4G	2B-	1f
.	4F	.	.
1C	1G	[1c	.
.	.	.	2e
=87	=87	=87	=87
1F	1A	1c]	1f
[1BB-	[1B-	[1f	[1dd
=88	=88	=88	=88
1BB-]	1B-]	1f]	1dd]
1F	1A	2.f	1cc
.	.	4e	.
=89	=89	=89	=89
1G	2r	2d	1b-
.	1d	2g	.
1A	.	2e	1a
.	2c	[2f	.
=90	=90	=90	=90
2B-	2d	2f]	1g
2c	2e	2e	.
1F	2f	2d	1a
.	2e	[2c	.
=91	=91	=91	=91
1G	1d	2c]	1.g
.	.	2B	.
1C	1e	1c	.
.	.	.	2cc
=92	=92	=92	=92
0r	0r	1g	2dd
.	.	.	2ee
.	.	2a	1ff
.	.	2b-	.
=93	=93	=93	=93
0r	0r	2cc	2ee
.	.	2a	2.ff
.	.	2.b-	.
.	.	.	4ff
.	.	.	2dd
.	.	4b-	.
=94	=94	=94	=94
0r	1r	2a	4ff
.	.	.	4ee
.	.	2.b-	4dd
.	.	.	4cc
.	2r	.	4dd
.	.	4a	4cc
.	2c	[2a	4cc
.	.	.	8b-
.	.	.	8a
=95	=95	=95	=95
1r	2d	2a]	1b-
.	2e	2g	.
2r	1f	1a	1a
2F	.	.	.
=96	=96	=96	=96
2G	2e	0r	0r
2A	2.f	.	.
1B-	.	.	.
.	4f	.	.
.	2d	.	.
=97	=97	=97	=97
2A	4f	0r	0r
.	4e	.	.
2.B-	4d	.	.
.	4c	.	.
.	4d	.	.
4B-	4e	.	.
2A	[2f	.	.
=98	=98	=98	=98
1G	2f]	2r	1r
.	2e	2g	.
1F	1f	1a	2r
.	.	.	2cc
=99	=99	=99	=99
0r	0r	2f	2dd
.	.	2g	2b-
.	.	4a	2cc
.	.	4g	.
.	.	4f	[2dd
.	.	4e	.
=100	=100	=100	=100
0r	2r	2d	2dd]
.	2c	2.g	4cc
.	.	.	4b-
.	2d	.	2a
.	.	4f	.
.	2B-	[2f	2b-
=101	=101	=101	=101
2r	2.c	2f]	1g
2C	.	2e	.
.	4B-	.	.
2D	2A	2f	[1f
2BB-	[2B-	[2d	.
=102	=102	=102	=102
1D	4B-]	4d]	0f]
.	4A	4c	.
.	2d	1B-	.
1F	2c	.	.
.	[2f	2A	.
=103	=103	=103	=103
2BB-	2f]	1B-	0r
2B-	2d	.	.
2G	2e	2r	.
2A	2f	2f	.
=104	=104	=104	=104
2B-	2g	2d	2r
2c	2.a	2e	2cc
1d	.	1f	2a
.	4g	.	.
.	[2f	.	2b-
=105	=105	=105	=105
1c	2f]	1g	2cc
.	2e	.	2cc
1r	2f	2a	1dd
.	2g	2b	.
=106	=106	=106	=106
2r	2c	2cc	1ee
2c	2e	2g	.
2c	2e	2g	1r
2c	2e	2g	.
=107	=107	=107	=107
2.c	2.e	2a	0r
.	.	2g	.
4B-	4d	.	.
2c	2e	2a	.
[2d	[2f	[2b-	.
=108	=108	=108	=108
2d]	2f]	4b-]	0r
.	.	4a	.
2c	2e	1a	.
1B-	1d	.	.
.	.	2g	.
=109	=109	=109	=109
2A	2e	2a	1cc
2F	2f	2a	.
2F	2f	2a	2cc
2E	2g	2g	2cc
=110	=110	=110	=110
2.F	2.a	2.f	2.cc
4G	4g	4d	4b-
2A	[1f	2c	2cc
[2B-	.	4B-	[2dd
.	.	4c	.
=111	=111	=111	=111
2B-]	1f]	4d	2dd]
.	.	4e	.
2A	.	1f	2cc
1G	1B-	.	1b-
.	.	2e	.
=112	=112	=112	=112
0F	0c	0f	0a
*-	*-	*-	*-
!!!CDT: 1525/^1526/-1594/2/2
!!!OCY: Italia
!!!AGN: Mass (Paraphrase)
!!!AST: renaissance, vocal
!!!ASW: Antiphon
!!!PWK: Masses, Book 11
!!!RNB: Cadence finals: C
!!!YOR: Le Opere Complete, v. 28, p. 148
!!!YOO: Rome, Italy: Fratelli Scalera
!!!END: 1992//
!!!EED: John Miller
!!!YEC: Copyright 2000, John Miller
!!!YEN: United States of America
!!!YEM: Rights to all derivative electronic formats reserved.
!!!YEM: Refer to licensing agreement for further details.
!!!YEM: This file must be accompanied by the licensing agreement.
!!!YEM: A copy of the licensing agreement may be found at http://www.music-cog.ohio-state.edu/HumdrumDatabases/Palestrina/license.txt
!!!EMD: converted to Humdrum by Bret Aarden
